src/assets/trash-icon.svg

<svg width="18" class="iconTxtSecondary" height="24" viewBox="0 0 18 24" fill="none" xmlns="http://www.w3.org/2000/svg">
<path d="M1.87031 21.21C1.92572 21.9661 2.26443 22.6735 2.81875 23.1907C3.37307 23.708 4.10216 23.997 4.86031 24H13.1403C13.8985 23.997 14.6276 23.708 15.1819 23.1907C15.7362 22.6735 16.0749 21.9661 16.1303 21.21L16.9303 10H1.07031L1.87031 21.21ZM10.0003 13C10.0003 12.7348 10.1057 12.4804 10.2932 12.2929C10.4807 12.1054 10.7351 12 11.0003 12C11.2655 12 11.5199 12.1054 11.7074 12.2929C11.895 12.4804 12.0003 12.7348 12.0003 13V19C12.0003 19.2652 11.895 19.5196 11.7074 19.7071C11.5199 19.8946 11.2655 20 11.0003 20C10.7351 20 10.4807 19.8946 10.2932 19.7071C10.1057 19.5196 10.0003 19.2652 10.0003 19V13ZM6.00031 13C6.00031 12.7348 6.10567 12.4804 6.29321 12.2929C6.48074 12.1054 6.7351 12 7.00031 12C7.26553 12 7.51988 12.1054 7.70742 12.2929C7.89496 12.4804 8.00031 12.7348 8.00031 13V19C8.00031 19.2652 7.89496 19.5196 7.70742 19.7071C7.51988 19.8946 7.26553 20 7.00031 20C6.7351 20 6.48074 19.8946 6.29321 19.7071C6.10567 19.5196 6.00031 19.2652 6.00031 19V13Z" fill="currentColor"/>
<path d="M15 4H14V3C14 2.20435 13.6839 1.44129 13.1213 0.87868C12.5587 0.31607 11.7956 0 11 0L7 0C6.20435 0 5.44129 0.31607 4.87868 0.87868C4.31607 1.44129 4 2.20435 4 3V4H3C2.20508 4.00237 1.4434 4.31921 0.881302 4.8813C0.319207 5.4434 0.00237409 6.20508 0 7V8H18V7C17.9976 6.20508 17.6808 5.4434 17.1187 4.8813C16.5566 4.31921 15.7949 4.00237 15 4ZM6 3C6 2.73478 6.10536 2.48043 6.29289 2.29289C6.48043 2.10536 6.73478 2 7 2H11C11.2652 2 11.5196 2.10536 11.7071 2.29289C11.8946 2.48043 12 2.73478 12 3V4H6V3Z" fill="currentColor"/>
</svg>

<svg xmlns="http://www.w3.org/2000/svg" width="18" height="24" fill="none" class="iconTxtSecondary" viewBox="0 0 18 24">
    <path fill="currentColor" d="M1.87 21.21A3.01 3.01 0 0 0 4.86 24h8.28a3.01 3.01 0 0 0 2.99-2.79l.8-11.21H1.07l.8 11.21ZM10 13a1 1 0 0 1 2 0v6a1 1 0 1 1-2 0v-6Zm-4 0a1 1 0 1 1 2 0v6a1 1 0 1 1-2 0v-6ZM15 4h-1V3a3 3 0 0 0-3-3H7a3 3 0 0 0-3 3v1H3a3.009 3.009 0 0 0-3 3v1h18V7a3.01 3.01 0 0 0-3-3ZM6 3a1 1 0 0 1 1-1h4a1 1 0 0 1 1 1v1H6V3Z"/>
</svg>
